X: 5401
T: Budgie's Ball
R: jig
M: 6/8
K: Gmajor
dgg {b}gdB|cea {c'}agf|{b}gdb {b}gdB|{d}cAd dBc|
dgg {b}gdB|cea {c'}agf|{b}gdb {b}gdB|{d}cAd ~G3:|
dBB dBB|ceg {b}geg|dBB dBB|ADD cBA|
dBB dBB|ceg {b}geg|bgd ~g2 B|{d}cAd ~G3:|

